storage/app/icons/phosphoricons/fill/paint-roller-fill.svg

<svg xmlns="http://www.w3.org/2000/svg" fill="currentColor" viewBox="0 0 256 256"><path d="M248 104v50a16.07 16.07 0 0 1-11.6 15.38L136 198v34a8 8 0 0 1-16 0v-34a16.07 16.07 0 0 1 11.6-15.38L232 154v-50h-16v24a16 16 0 0 1-16 16H48a16 16 0 0 1-16-16v-24H16a8 8 0 0 1 0-16h16V64a16 16 0 0 1 16-16h152a16 16 0 0 1 16 16v24h16a16 16 0 0 1 16 16"/></svg>

<svg xmlns="http://www.w3.org/2000/svg" viewBox="0 0 256 256" fill="currentColor"><path d="M248,104v50a16.07,16.07,0,0,1-11.6,15.38L136,198v34a8,8,0,0,1-16,0V198a16.07,16.07,0,0,1,11.6-15.38L232,154V104H216v24a16,16,0,0,1-16,16H48a16,16,0,0,1-16-16V104H16a8,8,0,0,1,0-16H32V64A16,16,0,0,1,48,48H200a16,16,0,0,1,16,16V88h16A16,16,0,0,1,248,104Z"/></svg>
